X: 229
T:Lady Georgina Gordon's Strathspey
B:William Marshall's Scottish Airs, Melodies, Strathspeys, Reels &c (1822)
C:William Marshall
L:1/8
M:C
O:Scotland
R:Strathspey
Z:Clark Bernst + Richard Robinson
%%Page:49 - 1
F:http://richardrobinson.tunebook.org.uk/tune/4072
%%TBL:{"version":1,"type":"tune","id":"4072"}
K:F
%%staves {1 2}
V:1
C |  \
F/F/F (.F>.F) A>F A<c | d<f!trill!c>A {A}G2 (GA) | \
FF/F/ (.F>.F) A>F A<c | d<f!trill!c>A {A}F2 [1 F :|2 GA |:
!trill!f>g{fg}ag a/g/f/d/ cf | d<f !trill!c>A {A}G2 G2 | \
!trill!f>gag a/g/f/e/ cf | d<f!trill! c>A {A}F2 ~F ::
!F!CFA,F CFBd | !trill!cAFA ~G2 G2 | CFA,F CFBd | !trill!cAFA {E}F2 ~F2 :|
fg{fg}ag a/g/f/d/ cf | ~c>d f<a g2 ~g2 | \
fg{fg}ag a/g/f/d/ cf | d<f !trill!c>A {A}F2 ~F2 |
fg{fg}ag a/g/f/d/ cf | c>d f<a g2 ~g2 | \
(b/a/)g/f/ (a/g/)f/e/ f<cd<f | !trill!c>B !trill!A>G {E}F2 F |]
V:2 middle=d clef=bass
L:1/4
z/ | ffff |bfcc | ffff | bc' dd/ :| d |: \
ff[fb][fa] | bfcc | ff[fb][fa] | bc'ff/ :: \
FFFF | FFcc | FFFB | ccFF :| \
ffff | afc'c' | ffff | bc'ff | ffff | afc'c' | fc'ab | c'cff/ |]

